fs/text_add_space_before_24_regular.svg

<svg viewBox="0 0 24 24" fill="none" xmlns="http://www.w3.org/2000/svg" height="1em" width="1em">
  <path d="M9.46967 6.28033C9.17678 5.98744 9.17678 5.51256 9.46967 5.21967C9.76256 4.92678 10.2374 4.92678 10.5303 5.21967L12 6.68934L13.4697 5.21967C13.7626 4.92678 14.2374 4.92678 14.5303 5.21967C14.8232 5.51256 14.8232 5.98744 14.5303 6.28033L12.5303 8.28033C12.2374 8.57322 11.7626 8.57322 11.4697 8.28033L9.46967 6.28033ZM3 11.75C3 11.3358 3.33579 11 3.75 11H20.25C20.6642 11 21 11.3358 21 11.75C21 12.1642 20.6642 12.5 20.25 12.5H3.75C3.33579 12.5 3 12.1642 3 11.75ZM3 17.75C3 17.3358 3.33579 17 3.75 17H20.25C20.6642 17 21 17.3358 21 17.75C21 18.1642 20.6642 18.5 20.25 18.5H3.75C3.33579 18.5 3 18.1642 3 17.75Z" fill="#212121"/>
</svg>

<svg viewBox="0 0 24 24" fill="none" xmlns="http://www.w3.org/2000/svg" height="1em" width="1em">
  <path d="M9.47 6.28a.75.75 0 0 1 1.06-1.06L12 6.69l1.47-1.47a.75.75 0 1 1 1.06 1.06l-2 2a.75.75 0 0 1-1.06 0l-2-2ZM3 11.75a.75.75 0 0 1 .75-.75h16.5a.75.75 0 0 1 0 1.5H3.75a.75.75 0 0 1-.75-.75Zm0 6a.75.75 0 0 1 .75-.75h16.5a.75.75 0 0 1 0 1.5H3.75a.75.75 0 0 1-.75-.75Z" fill="#212121"/>
</svg>
